cs_client/src/assets/icons/cherrytree/circle-red.svg

<?xml version="1.0" encoding="UTF-8" standalone="no"?>
<!-- Created with Inkscape (http://www.inkscape.org/) -->

<svg
   xmlns:dc="http://purl.org/dc/elements/1.1/"
   xmlns:cc="http://creativecommons.org/ns#"
   xmlns:rdf="http://www.w3.org/1999/02/22-rdf-syntax-ns#"
   xmlns:svg="http://www.w3.org/2000/svg"
   xmlns="http://www.w3.org/2000/svg"
   xmlns:xlink="http://www.w3.org/1999/xlink"
   xmlns:sodipodi="http://sodipodi.sourceforge.net/DTD/sodipodi-0.dtd"
   xmlns:inkscape="http://www.inkscape.org/namespaces/inkscape"
   width="48"
   height="48"
   id="svg1331"
   sodipodi:version="0.32"
   inkscape:version="0.91 r"
   version="1.0"
   inkscape:export-filename="/home/hbons/Desktop/Gaim Refresh/status/32/busy32.png"
   inkscape:export-xdpi="90"
   inkscape:export-ydpi="90"
   sodipodi:docname="empathy-busy.svg"
   inkscape:output_extension="org.inkscape.output.svg.inkscape">
  <defs
     id="defs1333">
    <filter
       inkscape:collect="always"
       id="filter10542"
       x="-0.129375"
       width="1.25875"
       y="-0.29571429"
       height="1.5914286">
      <feGaussianBlur
         inkscape:collect="always"
         stdDeviation="0.8625"
         id="feGaussianBlur10544" />
    </filter>
    <linearGradient
       inkscape:collect="always"
       id="linearGradient11892">
      <stop
         style="stop-color:#cc0000;stop-opacity:1"
         offset="0"
         id="stop11894" />
      <stop
         style="stop-color:#7b0000;stop-opacity:1"
         offset="1"
         id="stop11896" />
    </linearGradient>
    <linearGradient
       inkscape:collect="always"
       xlink:href="#linearGradient11892"
       id="linearGradient11995"
       gradientUnits="userSpaceOnUse"
       x1="6.5451713"
       y1="5.8359699"
       x2="21.422428"
       y2="26.885685" />
    <linearGradient
       inkscape:collect="always"
       xlink:href="#linearGradient2239"
       id="linearGradient12007"
       gradientUnits="userSpaceOnUse"
       gradientTransform="matrix(0,1.4828351,-1.4770883,0,47.11416,-1.277843)"
       x1="-1.5418521"
       y1="-6.2826729"
       x2="63.127094"
       y2="59.183727" />
    <linearGradient
       inkscape:collect="always"
       id="linearGradient11907">
      <stop
         style="stop-color:#ffffff;stop-opacity:1;"
         offset="0"
         id="stop11909" />
      <stop
         style="stop-color:#ffffff;stop-opacity:0;"
         offset="1"
         id="stop11911" />
    </linearGradient>
    <linearGradient
       inkscape:collect="always"
       xlink:href="#linearGradient11907"
       id="linearGradient12005"
       gradientUnits="userSpaceOnUse"
       gradientTransform="matrix(0,3.0708021,-3.0589515,0,644.58401,-511.77979)"
       x1="166.97408"
       y1="203.03818"
       x2="181"
       y2="203.03818" />
    <linearGradient
       id="linearGradient11259"
       inkscape:collect="always">
      <stop
         id="stop11261"
         offset="0"
         style="stop-color:#ffffff;stop-opacity:1;" />
      <stop
         id="stop11263"
         offset="1"
         style="stop-color:#ffffff;stop-opacity:0;" />
    </linearGradient>
    <radialGradient
       inkscape:collect="always"
       xlink:href="#linearGradient11259"
       id="radialGradient9821"
       gradientUnits="userSpaceOnUse"
       gradientTransform="matrix(1.023438,0,0,0.8870879,-0.2709505,0.7064648)"
       cx="11.736404"
       cy="7.3689327"
       fx="11.800528"
       fy="1.1734189"
       r="9.975256" />
    <linearGradient
       inkscape:collect="always"
       id="linearGradient2239">
      <stop
         style="stop-color:#ffffff;stop-opacity:1;"
         offset="0"
         id="stop2241" />
      <stop
         style="stop-color:#ffffff;stop-opacity:0;"
         offset="1"
         id="stop2243" />
    </linearGradient>
  </defs>
  <sodipodi:namedview
     id="base"
     pagecolor="#ffffff"
     bordercolor="#666666"
     borderopacity="1.0"
     inkscape:pageopacity="0.0"
     inkscape:pageshadow="2"
     inkscape:zoom="11.313708"
     inkscape:cx="10.507759"
     inkscape:cy="21.531598"
     inkscape:current-layer="layer1"
     showgrid="true"
     inkscape:grid-bbox="true"
     inkscape:document-units="px"
     fill="#ef2929"
     inkscape:window-width="1364"
     inkscape:window-height="716"
     inkscape:window-x="0"
     inkscape:window-y="0"
     inkscape:window-maximized="0">
    <inkscape:grid
       type="xygrid"
       id="grid5565"
       visible="true"
       enabled="true" />
  </sodipodi:namedview>
  <metadata
     id="metadata1336">
    <rdf:RDF>
      <cc:Work
         rdf:about="">
        <dc:format>image/svg+xml</dc:format>
        <dc:type
           rdf:resource="http://purl.org/dc/dcmitype/StillImage" />
      </cc:Work>
    </rdf:RDF>
  </metadata>
  <g
     id="layer1"
     inkscape:label="Layer 1"
     inkscape:groupmode="layer">
    <rect
       inkscape:label="48x48"
       y="-1"
       x="-1"
       height="48"
       width="48"
       id="rect11163"
       style="opacity:0;fill:#babdb6;fill-opacity:1;fill-rule:nonzero;stroke:none;stroke-width:2;marker:none;marker-start:none;marker-mid:none;marker-end:none;visibility:visible;display:inline;overflow:visible;enable-background:accumulate" />
    <path
       style="opacity:0.75;fill:#2e3436;fill-opacity:1;fill-rule:evenodd;stroke:none;stroke-width:0.99999917;stroke-miterlimit:4;stroke-opacity:1;display:inline;filter:url(#filter10542);enable-background:new"
       d="M 52.000003,144.5 C 52.000003,146.432 48.416002,148 44.000003,148 C 39.584003,148 36.000003,146.432 36.000003,144.5 C 36.000003,142.568 39.584003,141 44.000003,141 C 48.416002,141 52.000003,142.568 52.000003,144.5 z"
       id="path11195"
       transform="matrix(2.1000004,0,0,2.0998147,-67.912496,-266.22267)" />
    <path
       sodipodi:type="arc"
       style="fill:#f13d3d;fill-opacity:1;fill-rule:evenodd;stroke:url(#linearGradient11995);stroke-width:0.68314916px;stroke-linecap:butt;stroke-linejoin:miter;marker:none;marker-start:none;marker-mid:none;marker-end:none;stroke-miterlimit:4;stroke-dasharray:none;stroke-dashoffset:0;stroke-opacity:1;visibility:visible;display:inline;overflow:visible;enable-background:new"
       id="path11989"
       sodipodi:cx="15.590227"
       sodipodi:cy="16.57217"
       sodipodi:rx="14.345175"
       sodipodi:ry="14.345175"
       d="M 29.935402,16.57217 A 14.345175,14.345175 0 1 1 1.2450523,16.57217 A 14.345175,14.345175 0 1 1 29.935402,16.57217 z"
       transform="matrix(1.4637107,0,0,1.4639069,0.6803502,-1.760114)" />
    <path
       style="opacity:0.75;fill:url(#linearGradient12005);fill-opacity:1;fill-rule:evenodd;stroke:url(#linearGradient12007);stroke-width:1.00000012px;stroke-linecap:butt;stroke-linejoin:miter;marker:none;marker-start:none;marker-mid:none;marker-end:none;stroke-miterlimit:4;stroke-dashoffset:0;stroke-opacity:1;visibility:visible;display:inline;overflow:visible;enable-background:new"
       d="M 23.50004,42.5 C 12.46002,42.5 3.5000002,33.54002 3.5000002,22.5 C 3.5000002,11.459973 12.46002,2.5000029 23.50004,2.5000029 C 34.54002,2.5000029 43.49999,11.459973 43.49999,22.5 C 43.49999,33.54002 34.54002,42.5 23.50004,42.5 L 23.50004,42.5 z"
       id="path11991" />
    <path
       transform="matrix(1.6929363,-0.9774173,0.9774173,1.6929363,-7.2230198,15.445035)"
       d="M 21.781414,10.983024 A 9.975256,9.975256 0 1 1 1.8309021,10.983024 A 9.975256,9.975256 0 1 1 21.781414,10.983024 z"
       sodipodi:ry="9.975256"
       sodipodi:rx="9.975256"
       sodipodi:cy="10.983024"
       sodipodi:cx="11.806158"
       id="path9813"
       style="fill:url(#radialGradient9821);fill-opacity:1;stroke:none;stroke-width:0.51155168;stroke-miterlimit:4;stroke-dasharray:none;stroke-opacity:1;display:inline;enable-background:new"
       sodipodi:type="arc" />
  </g>
</svg>

<svg xmlns="http://www.w3.org/2000/svg" xmlns:xlink="http://www.w3.org/1999/xlink" width="48" height="48" version="1.0"><defs><linearGradient id="a"><stop offset="0" stop-color="#c00"/><stop offset="1" stop-color="#7b0000"/></linearGradient><linearGradient xlink:href="#a" id="f" gradientUnits="userSpaceOnUse" x1="6.545" y1="5.836" x2="21.422" y2="26.886"/><linearGradient xlink:href="#b" id="h" gradientUnits="userSpaceOnUse" gradientTransform="matrix(0 1.48284 -1.47709 0 47.114 -1.278)" x1="-1.542" y1="-6.283" x2="63.127" y2="59.184"/><linearGradient id="c"><stop offset="0" stop-color="#fff"/><stop offset="1" stop-color="#fff" stop-opacity="0"/></linearGradient><linearGradient xlink:href="#c" id="g" gradientUnits="userSpaceOnUse" gradientTransform="matrix(0 3.0708 -3.05895 0 644.584 -511.78)" x1="166.974" y1="203.038" x2="181" y2="203.038"/><linearGradient id="d"><stop offset="0" stop-color="#fff"/><stop offset="1" stop-color="#fff" stop-opacity="0"/></linearGradient><linearGradient id="b"><stop offset="0" stop-color="#fff"/><stop offset="1" stop-color="#fff" stop-opacity="0"/></linearGradient><radialGradient xlink:href="#d" id="i" gradientUnits="userSpaceOnUse" gradientTransform="matrix(1.02344 0 0 .88709 -.271 .706)" cx="11.736" cy="7.369" fx="11.801" fy="1.173" r="9.975"/><filter id="e" x="-.129" width="1.259" y="-.296" height="1.591"><feGaussianBlur stdDeviation=".863"/></filter></defs><path d="M52 144.5c0 1.932-3.584 3.5-8 3.5s-8-1.568-8-3.5 3.584-3.5 8-3.5 8 1.568 8 3.5z" transform="matrix(2.1 0 0 2.09981 -67.912 -266.223)" opacity=".75" fill="#2e3436" fill-rule="evenodd" filter="url(#e)" enable-background="new"/><path style="marker:none" d="M29.935 16.572a14.345 14.345 0 11-28.69 0 14.345 14.345 0 1128.69 0z" transform="matrix(1.46371 0 0 1.4639 .68 -1.76)" fill="#f13d3d" fill-rule="evenodd" stroke="url(#f)" stroke-width=".683" overflow="visible" enable-background="new"/><path style="marker:none" d="M23.5 42.5c-11.04 0-20-8.96-20-20s8.96-20 20-20 20 8.96 20 20-8.96 20-20 20h0z" opacity=".75" fill="url(#g)" fill-rule="evenodd" stroke="url(#h)" overflow="visible" enable-background="new"/><path transform="scale(1.95483) rotate(-30 12.896 10.845)" d="M21.781 10.983a9.975 9.975 0 11-19.95 0 9.975 9.975 0 1119.95 0z" fill="url(#i)" enable-background="new"/></svg>
